!!!!SEGMENT: pl-kk--kk-i-38--014_lasso-orlando-di--emendemus-in-melius.krn
!!!cenid: 16xx:1264
!!!COM: Lasso, Orlando di
!!!COM-rismID:
!!!CDT: ~1532-1594/06/14
!!!CNT: French-Flemish
!!!OTL: Emendemus in melius
!!!PDT:
!!!AGN: Sacred
!!!SMS-siglum: PL-Kk
!!!SMS-shelfmark: Kk.I.38
!!!SMS-shelfwork: 014 W
!!!SMS-variant:
!!!SMS-altvar:
!!!NIFC-rismSourceID: 1001154400
!!!NIFC-islandoraID: pl-kk:2701
!!!URL-pdf-islandora: https://repozytorium.nifc.pl/islandora/object/pl-kk%3A2701/datastream/PDF/view
!!!URL-scan: https://polish.musicsources.pl/pl/lokalizacje/galeria/rekopisy/5992 @EN{Scan on Polish Music Herritage in Open Access Website} @PL{Skany w portalu Dziedzictwo Muzyki Polskiej w otwartym dostępie}
!!!ONB-nifc: Lib. 4. Fol. 4. | Pro 4dra. 2da parte (jeśli występuje), należy do utworu tytułowego
!!!AIN: 1 empty
!!!key:
**kern	**text
*Iempty	*
*I"Baſso Ripieno.	*
*clefF3	*
*k[b-]	*
*g:	*
*M2/1	*
*met(C|)	*
=1-	=1-
!LO:TX:a:i:t=Pro 4dra&colon; \ngesima	!
!LO:TX:a:t=P:problem=w źródle znaki przykluczowe B- i BB- zapisane jeden nad drugim	!
1.G	E-
*2\right	*
!LO:TX:t=P:problem=kreska pseudotaktowa	!
2F\	-men-
=2-	=2-
4G\	-de-
4A\	.
4B-\	.
!LO:TX:t=P:problem=kreska pseudotaktowa	!
4G\	.
4A\	.
4G\	.
4F/	.
4E/	.
=3-	=3-
2F/	.
2.D/	.
4E/	.
4F/	.
4G/	.
=4-	=4-
!LO:TX:t=P:problem=kreska pseudotaktowa	!
1A	-m(us)
2r	.
2B-\	in
=5-	=5-
2B-\	me-
2A\	-li-
2.G\	-us
8F/L	.
8E/J	.
=6-	=6-
!LO:TX:t=P:problem=kreska pseudotaktowa	!
1D	.
1r	.
=7-	=7-
!LO:TX:t=P:problem=kreska pseudotaktowa	!
0r	.
=8-	=8-
2rA	.
2d\	in
2d\	me-
!LO:TX:t=P:problem=kreska pseudotaktowa	!
2c\	-li-
=9-	=9-
2B-,>\	-us
4BB-/	in
!LO:TX:t=P:problem=kreska pseudotaktowa	!
4C/	.
!LO:LB:g=original	!
4D/	me-
4E/	.
2F\	.
=10-	=10-
2G\	.
2G\	-li-
!LO:TX:t=P:problem=kreska pseudotaktowa	!
1D	-us
=11-	=11-
2rA	.
2d\	quae
2Bn\	i-
2B\	-gno-
=12-	=12-
1c	-ran-
2A\	-ter
4d\	pec-
!LO:TX:t=P:problem=kreska pseudotaktowa	!
4c\	.
=13-	=13-
4B-\ny	.
4A\	.
2G\	-ca-
4c\	.
4B-\	.
4A\	.
!LO:TX:t=P:problem=kreska pseudotaktowa	!
4G\	.
=14-	=14-
4F/	.
4D/	.
2.B-\	.
8A\L	.
8G\J	.
!LO:TX:t=P:problem=kreska pseudotaktowa	!
[<2A\	.
=15-	=15-
*cue	*
!LO:N:xstem	!
4A\]	.
*Xcue	*
8G\L	.
8F\J	.
1G	.
2F\	-vi-
=16-	=16-
!LO:TX:t=P:problem=kreska pseudotaktowa	!
1G	-mus;
00r	.
=17-	=17-
.	.
=18-	=18-
.	.
!LO:TX:t=P:problem=kreska pseudotaktowa	!
00r	.
=19-	=19-
.	.
=20-	=20-
2rD	.
2D/	ne
=21-	=21-
4G\	sub-
4A\	.
4B-\	.
!LO:TX:t=P:problem=kreska pseudotaktowa	!
4A\	.
4G\	.
4F\	.
1B-\	.
=22-	=22-
.	.
2A\	-i-
!LO:TX:t=P:problem=kreska pseudotaktowa	!
1B-	-tò
!LO:LB:g=original	!
=23-	=23-
0r	.
=24-	=24-
!LO:TX:t=P:problem=kreska pseudotaktowa	!
1r	.
2r	.
2c\	prae-
=25-	=25-
2d\	-oc-
2D/	-cu-
2E-X/	-pa-
!LO:TX:t=P:problem=kreska pseudotaktowa	!
2BB-/	-ti
=26-	=26-
0rF	.
=27-	=27-
1.E-X	di-
2BB-/	-e
=28-	=28-
*lig	*
1D	mor-
1Eny	.
*Xlig	*
=29-	=29-
!LO:TX:t=P:problem=kreska pseudotaktowa	!
0D	-tis
=30-	=30-
1r	.
2r	.
!LO:TX:t=P:problem=kreska pseudotaktowa	!
2G\	quae-
=31-	=31-
4c\	-ra-
4B-\	.
4c\	.
4d\	.
2c\	.
!LO:TX:t=P:problem=kreska pseudotaktowa	!
2c\	-m(us)
=32-	=32-
1r	.
2r	.
2F\	quae-
=33-	=33-
4B-\	-ra-
4A\	.
4B-\	.
!LO:TX:t=P:problem=kreska pseudotaktowa	!
4c\	.
2.B-\	.
8A\L	.
8G\J	.
=34-	=34-
2F\	.
!LO:TX:t=P:problem=kreska pseudotaktowa	!
2F,>\	-mus
2.C/	spa-
4C/	-ti-
=35-	=35-
1BB-,<	-um
1F	poe-
=36-	=36-
!LO:TX:t=P:problem=kreska pseudotaktowa	!
1F	-ni-
!LO:LB:g=original	!
2.B-\	-ten-
4A\	.
=37-	=37-
2.G\	.
4F\	.
2E-X/	.
2E-/	-ti-
=38-	=38-
!LO:TX:t=P:problem=kreska pseudotaktowa	!
1D	-ae,
2r	.
2d\	et
=39-	=39-
2d\	in-
!LO:TX:t=P:problem=kreska pseudotaktowa	!
2d\	-ve-
2c\	-ni-
4B-\	.
4A\	.
=40-	=40-
2B-\	.
2c,>\	-re
!LO:TX:t=P:problem=kreska pseudotaktowa	!
1d,>	non
=41-	=41-
(>2c\	poſ-
4B-\	.
4A\)	.
2B-\	-si-
!LO:TX:t=P:problem=kreska pseudotaktowa	!
2c\	.
=42-	=42-
2F,>/	-m(us)
4D/	poſ-
4E/ny	.
4F\	.
4G\	.
4A\	.
4B-\	.
=43-	=43-
2c\	.
1d	.
2c\	-si-
=44-	=44-
!LO:TX:t=P:problem=kreska pseudotaktowa	!
1d	-mus.
00r	.
=45-	=45-
.	.
=46-	=46-
.	.
*custos:A	*
!LO:TX:t=P:problem=kreska pseudotaktowa	!
1r	.
!LO:LB:g=original	!
=47-	=47-
2r	.
!LO:TX:t=P:problem=kreska pseudotaktowa	!
2A\	et
2B-\	in-
2B-\	-ve-
=48-	=48-
2A\	-ni-
4G\	.
!LO:TX:t=P:problem=kreska pseudotaktowa	!
4F\	.
2G\	-re
2A\	.
=49-	=49-
!LO:TX:t=P:problem=kreska pseudotaktowa	!
1G,>	non
2F\	poſ-
4E/	.
4D/	.
=50-	=50-
2E/	-si-
!LO:TX:t=P:problem=kreska pseudotaktowa	!
2F\	-mus
*	*ij
2.E-X/	poſ-
8D/L	.
8C/J	.
=51-	=51-
4BB-/	.
4C/	.
4D/	.
!LO:TX:t=P:problem=kreska pseudotaktowa	!
4E/ny	.
4F/	.
4C/	.
2G\	-si-
=52-	=52-
!LO:TX:t=P:problem=kreska pseudotaktowa	!
1D	-mus
*	*Xij
2r	.
2G\	At-
=53-	=53-
1c	-ten-
2B-,>\	-de
2.A\	Do-
=54-	=54-
.	.
4G\	.
4F\	.
!LO:TX:t=P:problem=kreska pseudotaktowa	!
4G\	.
2.E/	.
4E/	-mi-
=55-	=55-
!LO:TX:t=P:problem=kreska pseudotaktowa	!
1D	-ne
!LO:LB:g=original	!
00r	.
=56-	=56-
.	.
=57-	=57-
!LO:TX:t=P:problem=kreska pseudotaktowa	!
1r	.
=58-	=58-
1D	et
2C/	mi-
!LO:TX:t=P:problem=kreska pseudotaktowa	!
2D/	-ſe-
=59-	=59-
1E-X	-re-
!LO:TX:t=P:problem=kreska pseudotaktowa	!
1D	-re
=60-	=60-
00r	.
=61-	=61-
!LO:TX:t=P:problem=kreska pseudotaktowa	!
.	.
=62-	=62-
*	*ij
1D	et
2C/	mi-
!LO:TX:t=P:problem=kreska pseudotaktowa	!
2D/	-ſe-
=63-	=63-
1E-X	-re-
!LO:TX:t=P:problem=kreska pseudotaktowa	!
1D	-re
*	*Xij
=64-	=64-
2r	.
2d\	qui-
2c\	-a
!LO:TX:t=P:problem=kreska pseudotaktowa	!
2A\	pec-
=65-	=65-
2.c\	-ca-
4c\	-vi-
2G,<\	-m(us)
*	*ij
!LO:TX:t=P:problem=kreska pseudotaktowa	!
2c\	qui-
=66-	=66-
2B-\	-a
2G\	pec-
2.B-\	-ca-
!LO:TX:t=P:problem=kreska pseudotaktowa	!
4B-\	-vi-
=67-	=67-
2.F\	-mus
*	*Xij
!LO:TX:t=P:problem=kreska pseudotaktowa	!
4G\	.
4A\	.
4B-\	.
*custos:F	*
!LO:TX:t=P:problem=kreska pseudotaktowa	!
2c\	.
!LO:LB:g=original	!
=68-	=68-
2.F\	Ti-
4G\	.
1A	.
=69-	=69-
2D,</	-bi
!LO:TX:t=P:problem=kreska pseudotaktowa	!
2d\	qui-
2c\	-a
2A\	pec-
=70-	=70-
2.c\	-ca-
4c\	-vi-
2G,>\	-m(us)
*	*ij
!LO:TX:t=P:problem=kreska pseudotaktowa	!
2c\	qui-
=71-	=71-
2B-,>\	-a
!LO:TX:t=P:problem=kreska pseudotaktowa	!
2G\	pec-
2.B-\	-ca-
4B-\	-vi-
=72-	=72-
!LO:TX:t=P:problem=kreska pseudotaktowa	!
1F	-m(us)
*	*Xij
2r	.
2A\	qui-
=73-	=73-
2G\	-a
!LO:TX:t=P:problem=kreska pseudotaktowa	!
2E/ny	pec-
2.G\	-ca-
!LO:TX:t=P:problem=kreska pseudotaktowa	!
4G\	-vi-
=74-	=74-
2D,</	-m(us)
*	*ij
2G\	qui-
2F\	-a
2D/	pec-
=75-	=75-
2.F/	-ca-
4F/	-vi-
!LO:TX:t=P:problem=kreska pseudotaktowa	!
1C	-m(us)
*	*Xij
=76-	=76-
0D	Ti-
=77-	=77-
!LO:TX:t=P:problem=końcowa kreska pseudotaktowa	!
0G;>	-bi.
=-	=-
*-	*-
!!!RDF**kern: > = above
!!!RDF**kern: < = below
!!!EED: Antoni Szymański
!!!EEV: 2021-07-29
!!!ENC: Berenika Jozajtis
!!!END: 2021-07-01
